X:1
T:Galilee (Jude), 87.87
T:Galilee (Jude), 87.87
T:William Herbert Jude, 1874
T:Public Domain Courtesy of the Cyber Hymnal™
C:William Herbert Jude, 1874
Z:Public Domain
Z:Courtesy of the Cyber Hymnal™
%%score ( 1 2 ) 3
L:1/8
Q:1/4=95
M:3/4
K:Ab
V:1 treble 
V:2 treble 
V:3 bass 
V:1
 [Cc][CE] | [DB]2 [DB]2 [DB][DE] | [CA]2 [CA]2 [EA][=EA] | [FA]3 F [FA][FB] | [=Ec]4 [_Ec][EF] | %5
 [=DB]2 [DB]2 [EB][_DE] | [CA]2 [CA]2 [Ec][Ec] | [Dd]2 [DF]2 [Dc][DB] | [CA]4 |] %9
V:2
 x2 | x6 | x6 | x3 F x2 | x6 | x6 | x6 | x6 | x4 |] %9
V:3
 [A,,A,][A,,A,] | [E,G,]2 [E,G,]2 [E,G,][E,B,] | [A,,A,]2 [A,,A,]2 [C,A,][C,A,] | %3
 [D,A,]3 [D,A,] [D,F,][D,F,] | [C,G,]4 [F,=A,][F,C] | [B,,B,]2 [B,,A,]2 [E,G,][E,B,] | %6
 [A,,A,]2 [A,,A,]2 [_G,A,][G,A,] | [F,A,]2 [F,A,]2 [E,G,][E,G,] | [A,,A,]4 |] %9

